packages/core/assets/Icons/trending_down.svg

<svg viewBox="0 0 20 20" fill="none" xmlns="http://www.w3.org/2000/svg">
<path d="M15.4998 13.3334L11.1664 9.04169L9.0206 11.1875C8.70115 11.507 8.30532 11.6667 7.8331 11.6667C7.36088 11.6667 6.96504 11.507 6.6456 11.1875L2.24977 6.75002C2.09699 6.59724 2.01713 6.40627 2.01018 6.1771C2.00324 5.94794 2.0831 5.75002 2.24977 5.58335C2.40254 5.43058 2.59699 5.35419 2.8331 5.35419C3.06921 5.35419 3.26365 5.43058 3.41643 5.58335L7.8331 10L9.97893 7.85419C10.2984 7.53474 10.6942 7.37502 11.1664 7.37502C11.6387 7.37502 12.0345 7.53474 12.3539 7.85419L16.6664 12.1667V10.8334C16.6664 10.5972 16.7463 10.3993 16.906 10.2396C17.0657 10.0799 17.2637 10 17.4998 10C17.7359 10 17.9338 10.0799 18.0935 10.2396C18.2532 10.3993 18.3331 10.5972 18.3331 10.8334V14.1667C18.3331 14.4028 18.2532 14.6007 18.0935 14.7604C17.9338 14.9202 17.7359 15 17.4998 15H14.1664C13.9303 15 13.7324 14.9202 13.5727 14.7604C13.413 14.6007 13.3331 14.4028 13.3331 14.1667C13.3331 13.9306 13.413 13.7327 13.5727 13.5729C13.7324 13.4132 13.9303 13.3334 14.1664 13.3334H15.4998Z" fill="currentColor"/>
</svg>

<svg xmlns="http://www.w3.org/2000/svg" width="20" height="20" fill="none" viewBox="0 0 20 20">
  <path fill="#201F1F" d="m15.5 13.333-4.334-4.291-2.145 2.146c-.32.319-.716.479-1.188.479s-.868-.16-1.187-.48L2.25 6.75a.814.814 0 0 1-.24-.573.776.776 0 0 1 .24-.594.79.79 0 0 1 .583-.229.79.79 0 0 1 .583.23L7.833 10 9.98 7.854a1.61 1.61 0 0 1 1.187-.479c.473 0 .868.16 1.188.48l4.312 4.312v-1.334c0-.236.08-.434.24-.593.16-.16.358-.24.594-.24s.434.08.593.24c.16.16.24.357.24.593v3.334c0 .236-.08.434-.24.593a.806.806 0 0 1-.593.24h-3.334a.806.806 0 0 1-.593-.24.806.806 0 0 1-.24-.593c0-.236.08-.434.24-.594.16-.16.357-.24.593-.24H15.5Z"/>
</svg>
